build/category/ItemConverterOutline.svg

<svg xmlns="http://www.w3.org/2000/svg" fill="none" viewBox="0 0 24 24" focusable="false"><path d="M0 0H24V24H0z"/><path fill="#74767B" fill-rule="evenodd" d="M20.5449 6.06709C20.5449 7.74184 19.1865 9.09951 17.5117 9.09951C15.8623 9.09951 14.5195 7.78133 14.4805 6.14047L11.9951 6.14047C11.7796 6.13485 11.4902 6.10266 11.2852 6.05316C11.0801 6.00364 10.8809 5.93214 10.6865 5.83869C10.4922 5.74548 10.3125 5.63457 10.1455 5.50595C9.96908 5.36971 9.80827 5.2136 9.66309 5.03764C9.57227 4.92819 9.41992 4.83051 9.30371 4.78165C9.21289 4.75099 9.14258 4.74976 9.09375 4.77798L7.19727 5.87339C7.14844 5.90161 7.10547 6.01395 7.08691 6.10785C7.08691 6.2042 7.09994 6.39457 7.1377 6.49567C7.2168 6.71021 7.27246 6.92809 7.30176 7.14934C7.31934 7.28133 7.32812 7.41451 7.32812 7.54887C7.32812 7.62647 7.3252 7.70448 7.31934 7.78288C7.30371 7.99794 7.26562 8.20661 7.20605 8.40891C7.13835 8.63702 7.04362 8.85703 6.92188 9.06891C6.79948 9.2808 6.65625 9.47287 6.49219 9.64513C6.34668 9.79785 6.18457 9.935 6.00684 10.0566C5.8291 10.1777 5.64355 10.2781 5.44922 10.358C5.24284 10.4428 5.02702 10.5044 4.80176 10.5427C4.66113 10.5665 4.5 10.6494 4.40039 10.7257C4.32812 10.7889 4.29199 10.8487 4.29199 10.9051L4.29199 13.1692C4.29199 13.2216 4.37109 13.3155 4.43164 13.3704C4.51367 13.4301 4.611 13.4686 4.72363 13.486C4.95996 13.5225 5.1875 13.5829 5.40527 13.6673C5.51074 13.708 5.61328 13.7542 5.71484 13.8059C5.94043 13.9222 6.14648 14.0617 6.33301 14.2243C6.40723 14.2892 6.47754 14.3578 6.54492 14.43C6.68164 14.5757 6.80078 14.7319 6.90234 14.8986C6.98633 15.0357 7.05827 15.1799 7.11816 15.3312C7.14648 15.4022 7.17188 15.474 7.19434 15.5467C7.2832 15.8337 7.32812 16.1344 7.32812 16.4488C7.32812 16.653 7.30762 16.8532 7.26855 17.0494C7.2373 17.2044 7.19336 17.3568 7.1377 17.5068C7.10254 17.6012 7.08789 17.7172 7.08789 17.8213C7.08789 17.8652 7.09082 17.9071 7.0957 17.9443C7.11426 18.0374 7.14746 18.0979 7.19629 18.126L9.09473 19.222C9.14355 19.2502 9.26172 19.2306 9.35254 19.1999C9.46875 19.1511 9.57227 19.0719 9.66309 18.9623C9.80892 18.7863 9.97005 18.6302 10.1465 18.4939C10.3125 18.3653 10.4922 18.2545 10.6865 18.1613C10.8809 18.0679 11.0801 17.9965 11.2852 17.947C11.4785 17.9002 11.6768 17.8729 11.8799 17.8653L14.5049 17.8609C14.543 16.2193 15.8857 14.9004 17.5361 14.9004C19.2109 14.9004 20.5693 16.2581 20.5693 17.9328C20.5693 19.6076 19.2109 20.9652 17.5361 20.9652C16.2988 20.9652 15.2344 20.2238 14.7627 19.1609L11.999 19.1609C11.8525 19.1609 11.7109 19.1804 11.5742 19.215C11.4629 19.243 11.3545 19.2823 11.25 19.3329C11.1416 19.3847 11.042 19.4461 10.9482 19.5171C10.8447 19.5966 10.75 19.688 10.6641 19.7916C10.6201 19.8445 10.5742 19.895 10.5254 19.9433C10.4388 20.0301 10.3444 20.1095 10.2422 20.1815C10.0768 20.2986 9.90267 20.3881 9.71973 20.4498C9.51758 20.5182 9.30078 20.5478 9.10156 20.54C8.9668 20.5334 8.83789 20.5097 8.71387 20.469C8.62109 20.4383 8.53125 20.3979 8.44434 20.3478L6.5459 19.2519C6.45898 19.2016 6.37891 19.1436 6.30566 19.078C6.20898 18.9917 6.11426 18.8769 6.04199 18.7639C5.93555 18.5957 5.8623 18.4073 5.82031 18.1987C5.79492 18.0727 5.78223 17.9438 5.78223 17.812C5.78223 17.7462 5.78613 17.6797 5.79199 17.6125C5.80371 17.4914 5.82422 17.3728 5.85449 17.2568C5.87305 17.188 5.89453 17.1201 5.91992 17.0531C5.94824 16.9762 5.9707 16.8981 5.98828 16.8187C6.01465 16.6983 6.02734 16.575 6.02734 16.4488C6.02734 16.1771 5.97428 15.9311 5.86816 15.711C5.79883 15.5695 5.65625 15.3845 5.54297 15.2644C5.42057 15.1448 5.27962 15.0442 5.12012 14.9623C5.08105 14.9423 5.04199 14.9236 5.00098 14.9063C4.85059 14.8417 4.69238 14.7966 4.52539 14.7708C4.44531 14.7585 4.36719 14.7416 4.29004 14.72C4.18587 14.6908 4.08398 14.653 3.98438 14.6067C3.81445 14.5278 3.6416 14.4096 3.50684 14.2909C3.37012 14.1658 3.22559 13.9628 3.1416 13.8089C3.08691 13.6978 3.0472 13.5837 3.02246 13.4664C3.00195 13.3695 2.99219 13.2704 2.99219 13.1692L2.99219 10.9051C2.99219 10.8052 3.00228 10.7073 3.02246 10.6115C3.04883 10.4839 3.09961 10.3458 3.16211 10.2255C3.25456 10.049 3.38118 9.8903 3.54199 9.74933C3.68652 9.62209 3.85059 9.51599 4.03516 9.43103C4.14844 9.37888 4.26465 9.33685 4.38281 9.30493C4.44922 9.28713 4.51628 9.27248 4.58398 9.26098C4.71582 9.23856 4.8418 9.20226 4.96289 9.15205C5.07129 9.10692 5.1748 9.05054 5.27344 8.98294C5.37012 8.91703 5.45898 8.84299 5.53809 8.7608C5.63672 8.65926 5.72266 8.54529 5.7959 8.41891C5.86816 8.29254 5.9248 8.1613 5.96289 8.02519C5.99414 7.91497 6.01465 7.80155 6.02344 7.68494C6.02637 7.64019 6.02832 7.59566 6.02832 7.55135C6.02832 7.47724 6.02344 7.40374 6.01367 7.33086C5.99707 7.20141 5.96582 7.07385 5.91895 6.94828C5.89453 6.88383 5.87402 6.81855 5.85645 6.75243C5.82454 6.63372 5.80306 6.51231 5.79199 6.3882C5.78613 6.3215 5.78223 6.25551 5.78223 6.19024C5.78223 6.05771 5.79492 5.92813 5.82031 5.80151C5.8623 5.59212 5.94531 5.38958 6.05176 5.22085C6.125 5.10725 6.20996 5.00709 6.30762 4.92036C6.38053 4.85517 6.46029 4.79757 6.54688 4.74756L8.44434 3.65214C8.53125 3.60215 8.62012 3.56181 8.71387 3.53113C8.83691 3.49029 8.98242 3.46585 9.11719 3.45921C9.31641 3.45145 9.51758 3.48176 9.71973 3.55015C9.90234 3.61187 10.0762 3.70132 10.2422 3.81849C10.3428 3.88969 10.4365 3.96819 10.5225 4.05395C10.5723 4.1031 10.6191 4.15463 10.6641 4.20856C10.749 4.31145 10.8438 4.40247 10.9473 4.48159C11.04 4.55314 11.1416 4.61497 11.25 4.66707C11.3555 4.71774 11.4629 4.75708 11.5742 4.78508C11.7119 4.81964 11.8535 4.83691 11.999 4.83691L14.7383 4.84048C15.209 3.77677 16.2744 3.03467 17.5117 3.03467C19.1865 3.03467 20.5449 4.39233 20.5449 6.06709ZM17.5117 7.79951C18.4688 7.79951 19.2441 7.02388 19.2441 6.06709C19.2441 5.1103 18.4688 4.33467 17.5117 4.33467C16.5557 4.33467 15.7793 5.1103 15.7793 6.06709C15.7793 7.02388 16.5557 7.79951 17.5117 7.79951ZM15.7617 12.6499C15.4531 14.4481 13.8867 15.8165 12 15.8165C9.89258 15.8165 8.18359 14.1078 8.18359 12C8.18359 9.89211 9.89258 8.18336 12 8.18336C13.8867 8.18336 15.4531 9.5517 15.7617 11.3499L19.8945 11.3499C20.2588 11.3499 20.5439 11.6359 20.5439 11.9999C20.5439 12.3639 20.2588 12.6499 19.8945 12.6499L15.7617 12.6499ZM12 14.5165C13.3906 14.5165 14.5166 13.3898 14.5166 12C14.5166 10.6101 13.3906 9.48337 12 9.48337C10.6104 9.48337 9.48438 10.6101 9.48438 12C9.48438 13.3898 10.6104 14.5165 12 14.5165ZM17.5361 19.6652C18.4932 19.6652 19.2686 18.8896 19.2686 17.9328C19.2686 16.976 18.4932 16.2004 17.5361 16.2004C16.5801 16.2004 15.8037 16.976 15.8037 17.9328C15.8037 18.8896 16.5801 19.6652 17.5361 19.6652Z"/></svg>

<svg xmlns="http://www.w3.org/2000/svg" fill="none" viewBox="0 0 24 24" focusable="false"><path fill="#74767B" fill-rule="evenodd" d="M20.54 6.06c0 1.68-1.36 3.03-3.03 3.03-1.65 0-3-1.31-3.03-2.95h-2.49c-.22-.01-.5-.04-.71-.09-.2-.05-.4-.12-.6-.22q-.285-.135-.54-.33a2.7 2.7 0 0 1-.48-.47c-.09-.11-.25-.2-.36-.25-.09-.03-.16-.04-.21-.01l-1.9 1.1c-.05.03-.09.14-.11.23 0 .1.01.29.05.39.08.22.14.43.17.65.01.14.02.27.02.4 0 .08 0 .16-.01.24-.01.21-.05.42-.11.62-.07.23-.16.45-.28.66-.13.22-.27.41-.43.58-.15.15-.31.29-.49.41s-.36.22-.56.3c-.2.09-.42.15-.64.19-.14.02-.3.1-.4.18-.08.06-.11.12-.11.18v2.26c0 .06.08.15.14.21.08.06.18.09.29.11.23.04.46.1.68.18.11.04.21.09.31.14.23.12.43.26.62.42q.105.09.21.21c.14.14.26.3.36.46.08.14.15.28.21.44.03.07.06.14.08.21.09.29.13.59.13.9q0 .315-.06.6c-.03.16-.07.31-.13.46-.03.1-.05.21-.05.32 0 .04.01.08.01.12.02.09.05.15.1.18l1.9 1.1c.05.03.17.01.26-.03a.74.74 0 0 0 .31-.23c.14-.18.3-.33.48-.47q.255-.195.54-.33c.2-.1.4-.17.6-.22.19-.04.39-.07.59-.08h2.63a3.027 3.027 0 0 1 3.03-2.96c1.68 0 3.03 1.35 3.03 3.03 0 1.67-1.35 3.03-3.03 3.03-1.24 0-2.3-.74-2.77-1.8h-2.77c-.14 0-.28.02-.42.05-.11.03-.22.07-.32.12-.11.05-.21.11-.31.18-.1.08-.19.17-.28.28-.04.05-.09.1-.14.15-.09.09-.18.16-.28.24-.17.11-.34.2-.53.26-.2.07-.41.1-.61.1a1.6 1.6 0 0 1-.66-.2l-1.9-1.09q-.135-.075-.24-.18a1.576 1.576 0 0 1-.48-.88c-.03-.12-.04-.25-.04-.38 0-.07 0-.14.01-.2q.015-.18.06-.36l.06-.2c.03-.08.06-.16.07-.24.03-.12.04-.24.04-.37 0-.27-.05-.51-.16-.73-.07-.15-.21-.33-.32-.45-.12-.12-.27-.22-.42-.3L5 14.9c-.15-.06-.31-.11-.48-.13-.08-.02-.16-.03-.23-.05-.11-.03-.21-.07-.31-.12-.17-.08-.34-.2-.48-.31-.13-.13-.28-.33-.36-.49-.06-.11-.1-.22-.12-.34-.02-.1-.03-.19-.03-.3V10.9c0-.1.01-.2.03-.29.02-.13.07-.27.14-.39.09-.18.22-.33.38-.48.14-.12.31-.23.49-.31.11-.06.23-.1.35-.13.06-.02.13-.03.2-.04.13-.03.26-.06.38-.11.11-.05.21-.1.31-.17s.18-.14.26-.22c.1-.11.19-.22.26-.35.07-.12.13-.25.17-.39.03-.11.05-.22.06-.34v-.13c0-.08 0-.15-.01-.22-.02-.13-.05-.26-.1-.39-.02-.06-.04-.13-.06-.19-.03-.12-.05-.24-.06-.37-.01-.06-.01-.13-.01-.19 0-.14.01-.27.04-.39.04-.21.12-.42.23-.58.07-.12.15-.22.25-.3q.12-.105.24-.18l1.9-1.09a1.6 1.6 0 0 1 .67-.2c.2 0 .4.03.6.1.19.06.36.15.53.26.1.07.19.15.28.24.05.05.09.1.14.15.08.11.18.2.28.28.1.07.2.13.31.18.1.05.21.09.32.12.14.03.28.05.42.05l2.74.01a3.034 3.034 0 0 1 5.81 1.22m-3.03 1.73c.95 0 1.73-.77 1.73-1.73 0-.95-.78-1.73-1.73-1.73-.96 0-1.74.78-1.74 1.73 0 .96.78 1.73 1.74 1.73m-1.75 4.85A3.818 3.818 0 0 1 8.18 12 3.82 3.82 0 0 1 12 8.18c1.88 0 3.45 1.37 3.76 3.16h4.13c.36 0 .65.29.65.65 0 .37-.29.65-.65.65zM12 14.51c1.39 0 2.51-1.13 2.51-2.51 0-1.39-1.12-2.52-2.51-2.52S9.48 10.61 9.48 12A2.52 2.52 0 0 0 12 14.51m5.53 5.15a1.73 1.73 0 1 0-1.73-1.73c0 .95.78 1.73 1.73 1.73"/></svg>
